X:606
T:The bush on the hill
T:The lowdown jig
T:McGlinchy's
R:Jig
Z:Transcription:Henrik Norbeck?, chords:Mike Long
M:6/8
L:1/8
K:G
DB,|\
"G"~G,3 DB,D|GFG Bdg|"C"edc "D"BcA|"C"BGE EDB,|\
"G"~G,3 DB,D|GFG Bdg|"C"edc "D"BcA|"G"BGF G:|
|:dB|\
"G"GBd gfg|"C"ece "G"dBA|"C"cBc "G"dBG|"D"BAA ABA|\
"G"GBd gfg|"C"ece "G"dBA|"C"cBc "D"dcA|"G"AGF G:|
